X:1
T:Wijnblahdarn
R:Polska
C:Olle Lindvall
Z:ABC-transkribering av Olle Lindvall
M:3/4
L:1/8
K:C clef=treble
A,/C/E/A/ c2 A2|B>A G2 D2|E(3F/E/D/ E4|C/2B,/2C/2D/2 EC A,3/2B,/2|
A,^G, B,2 B,A,/B,/|CA, E,C, A,,/C,/E,/A,/|B,A,/^G,/ A,4:|
|:E,C F,D CB,/A,/|^G,/^F,/^G,/A,/ ^G,E, E>D|B,C CA AC|
CD D2 (3D/E/D/^C/D/|E^G, (3^G,/A,/^G,/^F,/^G,/ A,/B,/C/D/|
E>C A,C (3B,/C/B,/A,/^G,/|E,A, A,4:|

